X: 3786
T: Bishop, The
R: polka
M: 2/4
K: Gmajor
|:Gg- gf-|fe- ed|eg dB|cA GF|
Gg- gf-|fe- ed|eg A^c|d2 D2:|
|:dc- cB/A/|Bd- dc|Bg GB|AD D2|
GB- BA/G/|Ag fe|dc BA|G2 G,2:|
|:Gg- gf-|fe- ed|eg dB|c/d/c/A/ GF|
Gg- gf-|fe- ed|eg A^c|d4:|
|:dc- cB/A/|Bd- dc|Bg- gB|AD- DD|
GB- BA/G/|A>g fe|d2 c/B/A|G4:|

